coreui/free/cil-smoke.svg

<svg xmlns="http://www.w3.org/2000/svg" viewBox="0 0 512 512">
  <path fill="var(--ci-primary-color, currentColor)" d="M16,240V360H360V240H16Zm312,88H48V272H328Z" class="ci-primary"/>
  <rect width="32" height="120" x="384" y="240" fill="var(--ci-primary-color, currentColor)" class="ci-primary"/>
  <rect width="32" height="120" x="440" y="240" fill="var(--ci-primary-color, currentColor)" class="ci-primary"/>
  <path fill="var(--ci-primary-color, currentColor)" d="M385.428,173.3a31.982,31.982,0,0,1,2.32-38.418,63.745,63.745,0,0,0,3.479-78.69L385.377,48H348.8l-1.82,1.3,18.207,25.49a31.807,31.807,0,0,1-1.736,39.265,64.1,64.1,0,0,0-4.649,76.993L364.77,200h38.46Z" class="ci-primary"/>
  <path fill="var(--ci-primary-color, currentColor)" d="M457.428,173.3a31.982,31.982,0,0,1,2.32-38.418,63.745,63.745,0,0,0,3.479-78.69L457.377,48H420.8l-1.82,1.3,18.207,25.49a31.807,31.807,0,0,1-1.736,39.265,64.1,64.1,0,0,0-4.649,76.993L436.77,200h38.46Z" class="ci-primary"/>
</svg>

<svg viewBox="0 0 512 512" xmlns="http://www.w3.org/2000/svg"><g><path d="M16 240v120h344V240H16Zm312 88H48v-56h280Z"/><path d="M384 240h32v120h-32Z"/><path d="M440 240h32v120h-32Z"/><path d="M385.42 173.3h0c-7.89-11.9-6.94-27.57 2.32-38.42v0c19.16-22.3 20.6-54.8 3.47-78.69l-5.85-8.2h-36.577l-1.82 1.3 18.2 25.49v0c8.54 11.92 7.82 28.14-1.74 39.26v0c-18.55 21.75-20.45 53.16-4.65 76.99l5.96 8.95h38.46Z"/><path d="M457.42 173.3h0c-7.89-11.9-6.94-27.57 2.32-38.42v0c19.16-22.3 20.6-54.8 3.47-78.69l-5.85-8.2h-36.577l-1.82 1.3 18.2 25.49v0c8.54 11.92 7.82 28.14-1.74 39.26v0c-18.55 21.75-20.45 53.16-4.65 76.99l5.96 8.95h38.46Z"/></g></svg>
